X: 1
T: Alyssia's
M: 4/4
L: 1/8
R: reel
K: Dmaj
d,2(3f,e,d,a,d,b,d,|a,2fedb,a,f,|d,2(3f,e,d,a,d,b,d,|e,f,g,a,db,a,f,|
d,2(3f,e,d,a,d,b,d,|a,2fedb,a,f,|g,2b,g,f,2a,f,|e,d,e,f,d,4:|
d2(3dca,b,2b,a,|g,2g,b,a,f,e,f,|d,2dd,cd,b,d,|e,f,g,a,b,a,b,c|
d2(3dca,b,2b,a,|g,2g,b,a,f,e,f,|g,2b,g,f,2a,f,|e,d,e,f,d,4:|
